X:1
T: Tollomoss
C:Adapted from C. Sherrit by Bruce Shawyer
R:Reel
Q:232
K:A
M:4/4
L:1/8
cd|:"A"e2ce "E7"dc Bd|"A"cd ec "F#m"A2AG|"Bm"F2Bc "B7"dF BA|"E7"G2B2 B2AG|
"D"FD FA "E"GE GB|"F#m"AB cd "C#"e2dc|"Bm"d2BA "E7"GA Bd|1"A"c2A2 A2cd:|2"A"c2A2 A2AB|
|:"A"c2c2 cd ed|"A"c2Ac EA cA|"Bm"B2B2 Bc dc|"E7"B2GB EG Bd|
"A"c2c2 cd ed|"A"c2Ac EA ce|"Bm"d2BA GA Bd|1"A"c2A2 A2AB:|2"A"c2A2 A2||
